X: 506
T: Da luotuo
L: 1/8
M: 2/4
K: Bb
c'2g2 [I:setbarnb 1]| 
f3(3g/ f/ =e/ | 
f4 | 
f2=e2 | 
f'2c'2 | 
g3(3g/ f/ =e/ | 
f4 | 
f'f'2d' | 
c'c'2g | 
f2c'2 | 
g3(3g/ f/ =e/ | 
gg2f/ d/ | 
dc3 | 
g2f d | 
c4 | 
f =e f g | 
c' b/ g/ f =e | 
gf2f/ d/ | 
dc2B | 
g2f d | 
c4 |]

@@@ Tune index: 9380
